source/img/icons/js.svg

<?xml version="1.0" encoding="UTF-8"?>
<svg width="34px" height="48px" viewBox="0 0 34 48" version="1.1" xmlns="http://www.w3.org/2000/svg" xmlns:xlink="http://www.w3.org/1999/xlink">
    <g id="Page-1" stroke="none" stroke-width="1" fill="none" fill-rule="evenodd">
        <g id="shockolada" transform="translate(-1042.000000, -1424.000000)">
            <rect fill="#FFFFFF" x="0" y="0" width="1920" height="4125"></rect>
            <g id="Group-8" transform="translate(1042.000000, 1424.000000)">
                <polygon id="Fill-1" fill="#E5A329" points="16.9055556 9.69278609 0 9.69278609 3.16787654 43.8712904 16.9055556 47.743847 30.6381975 43.8712904 33.8115309 9.69278609"></polygon>
                <polygon id="Fill-2" fill="#F0BE22" points="16.9057235 12.4770365 16.9057235 44.8494887 28.0300198 41.7136278 30.7391062 12.4770365"></polygon>
                <polygon id="Fill-3" fill="#FEFEFE" points="25.7561753 16.6709009 8.64578025 16.6709009 7.45661975 29.4681183 7.48180494 29.3879791 22.0161753 29.3879791 21.5418543 34.801127 16.9056815 36.1301009 12.1985704 34.7810922 11.9160765 31.5049878 7.64299012 31.5049878 8.25373086 38.0517704 16.9056815 40.4947617 25.5576321 38.0517704 26.7484716 25.2040487 11.3259037 25.2040487 11.5223481 20.9199443 22.2273111 20.9199443 22.3847185 23.3721183 26.6960025 23.3721183"></polygon>
                <path d="M11.9162025,31.5050296 L7.64311605,31.5050296 L8.25343704,38.0518122 L16.9058074,40.4893774 L16.9058074,36.1301426 L12.1986963,34.7811339 L11.9162025,31.5050296 Z M16.9058074,16.6709426 L8.64548642,16.6709426 L7.45632593,29.46816 L7.48193086,29.3880209 L16.9058074,29.3880209 L16.9058074,25.2040904 L11.9208198,25.2040904 L12.1172642,20.9199861 L16.9058074,20.9199861 L16.9058074,16.6709426 Z" id="Fill-4" fill="#EAEAEA"></path>
                <polygon id="Fill-5" fill="#231F20" points="13.6154889 0.417182609 13.6154889 4.6512 10.6087975 4.6512 10.6087975 6.79826087 13.6154889 6.79826087 15.225242 6.79826087 15.7700815 6.79826087 15.7700815 0.417182609"></polygon>
                <path d="M23.2028173,0.449697391 L17.9584222,0.449697391 L17.9584222,2.68441043 C18.6594099,3.3818713 19.0258543,3.71578435 20.0408173,4.72503652 C19.4472864,4.72503652 17.9584222,4.72712348 17.9584222,4.72712348 L17.9584222,6.76566261 L23.2028173,6.76566261 L23.2028173,4.72670609 L21.1082494,2.68441043 L23.2028173,2.68441043 L23.2028173,0.449697391 Z" id="Fill-6" fill="#231F20"></path>
            </g>
        </g>
    </g>
</svg>

<?xml version="1.0" encoding="utf-8"?>
<!-- Generator: Adobe Illustrator 25.0.1, SVG Export Plug-In . SVG Version: 6.00 Build 0)  -->
<svg width="34" height="48" version="1.1" id="Layer_1" xmlns="http://www.w3.org/2000/svg" xmlns:xlink="http://www.w3.org/1999/xlink" x="0px" y="0px"
	 viewBox="0 0 34 48" enable-background="new 0 0 34 48" xml:space="preserve">
<g id="Page-1">
	<g id="shockolada" transform="translate(-1042.000000, -1424.000000)">
		<g id="Group-8" transform="translate(1042.000000, 1424.000000)">
			<polygon id="Fill-1" fill-rule="evenodd" clip-rule="evenodd" fill="#E5A329" points="16.9,9.7 0,9.7 3.2,43.9 16.9,47.7
				30.6,43.9 33.8,9.7 			"/>
			<polygon id="Fill-2" fill-rule="evenodd" clip-rule="evenodd" fill="#F0BE22" points="16.9,12.5 16.9,44.8 28,41.7 30.7,12.5
				"/>
			<polygon id="Fill-3" fill-rule="evenodd" clip-rule="evenodd" fill="#FEFEFE" points="25.8,16.7 8.6,16.7 7.5,29.5 7.5,29.4
				22,29.4 21.5,34.8 16.9,36.1 12.2,34.8 11.9,31.5 7.6,31.5 8.3,38.1 16.9,40.5 25.6,38.1 26.7,25.2 11.3,25.2 11.5,20.9
				22.2,20.9 22.4,23.4 26.7,23.4 			"/>
			<path id="Fill-4" fill-rule="evenodd" clip-rule="evenodd" fill="#EAEAEA" d="M11.9,31.5H7.6l0.6,6.5l8.7,2.4v-4.4l-4.7-1.3
				L11.9,31.5z M16.9,16.7H8.6L7.5,29.5l0-0.1h9.4v-4.2h-5l0.2-4.3h4.8V16.7z"/>
			<polygon id="Fill-5" fill-rule="evenodd" clip-rule="evenodd" fill="#231F20" points="13.6,0.4 13.6,4.7 10.6,4.7 10.6,6.8
				13.6,6.8 15.2,6.8 15.8,6.8 15.8,0.4 			"/>
			<path id="Fill-6" fill-rule="evenodd" clip-rule="evenodd" fill="#231F20" d="M23.2,0.4H18v2.2c0.7,0.7,1.1,1,2.1,2
				c-0.6,0-2.1,0-2.1,0v2h5.2v-2l-2.1-2h2.1V0.4z"/>
		</g>
	</g>
</g>
</svg>
